icons/themes/default/preview.svg

<svg viewBox="0 0 16 16" fill="none" xmlns="http://www.w3.org/2000/svg">
<path fill-rule="evenodd" clip-rule="evenodd" d="M2.05859 8.00988C2.05859 7.7489 2.1348 7.49361 2.27785 7.27535L2.27847 8.74535C2.13502 8.52688 2.05859 8.27123 2.05859 8.00988ZM2.27785 7.27535L2.27852 8.74542C3.14858 10.0698 5.01821 12.1707 8.01211 12.1799C11.0005 12.1891 12.8591 10.0752 13.7432 8.74454C14.0333 8.30117 14.033 7.71719 13.7425 7.27406C12.8723 5.94964 11.0027 3.84909 8.00904 3.83987C5.02054 3.83068 3.16194 5.94475 2.27785 7.27535ZM8.01211 2.83988C4.50149 2.82908 2.3803 5.31376 1.44408 6.72323L1.44408 6.72322L1.44264 6.72542C1.19209 7.10695 1.05859 7.55343 1.05859 8.00988C1.05859 8.46632 1.19209 8.9128 1.44264 9.29433L1.44268 9.29441C2.37264 10.71 4.50299 13.1691 8.00904 13.1799C11.5197 13.1907 13.6409 10.706 14.5771 9.29653L14.5787 9.29406C15.0879 8.51757 15.0879 7.50218 14.5787 6.7257L14.5785 6.72535C13.6485 5.30975 11.5182 2.85067 8.01211 2.83988ZM8.01055 5.05988C7.22816 5.05988 6.47781 5.37068 5.92458 5.92391C5.37135 6.47714 5.06055 7.22749 5.06055 8.00988C5.06055 8.79226 5.37135 9.54261 5.92458 10.0958C6.47781 10.6491 7.22816 10.9599 8.01055 10.9599C8.39795 10.9599 8.78155 10.8836 9.13946 10.7353C9.49737 10.5871 9.82258 10.3698 10.0965 10.0958C10.3704 9.82191 10.5877 9.4967 10.736 9.13879C10.8842 8.78088 10.9605 8.39727 10.9605 8.00988C10.9605 7.62248 10.8842 7.23887 10.736 6.88096C10.5877 6.52305 10.3704 6.19784 10.0965 5.92391C9.82258 5.64998 9.49737 5.43268 9.13946 5.28443C8.78155 5.13618 8.39795 5.05988 8.01055 5.05988ZM6.63169 6.63102C6.99738 6.26532 7.49337 6.05988 8.01055 6.05988C8.26662 6.05988 8.5202 6.11031 8.75678 6.20831C8.99336 6.30631 9.20833 6.44994 9.38941 6.63102C9.57048 6.81209 9.71412 7.02706 9.81211 7.26364C9.91011 7.50023 9.96055 7.7538 9.96055 8.00988C9.96055 8.26595 9.91011 8.51952 9.81211 8.75611C9.71412 8.99269 9.57048 9.20766 9.38941 9.38873C9.20833 9.56981 8.99336 9.71344 8.75678 9.81144C8.5202 9.90944 8.26663 9.95988 8.01055 9.95988C7.49337 9.95988 6.99738 9.75443 6.63169 9.38873C6.26599 9.02304 6.06055 8.52705 6.06055 8.00988C6.06055 7.4927 6.26599 6.99671 6.63169 6.63102Z" fill="currentColor"/>
</svg>

<svg xmlns="http://www.w3.org/2000/svg" fill="none" viewBox="0 0 16 16">
  <path fill="currentColor" fill-rule="evenodd" d="M2.059 8.01c0-.261.076-.516.219-.735v1.47a1.34 1.34 0 0 1-.22-.735Zm.219-.735v1.47c.87 1.325 2.74 3.426 5.734 3.435 2.989.01 4.847-2.105 5.731-3.435a1.35 1.35 0 0 0 0-1.47c-.87-1.325-2.74-3.426-5.734-3.435-2.988-.01-4.847 2.105-5.731 3.435ZM8.012 2.84c-3.51-.01-5.632 2.474-6.568 3.883l-.001.002a2.34 2.34 0 0 0 0 2.57c.93 1.415 3.06 3.874 6.566 3.885 3.51.01 5.632-2.474 6.568-3.883l.002-.003a2.35 2.35 0 0 0 0-2.568c-.93-1.416-3.06-3.875-6.567-3.886Zm-.001 2.22a2.95 2.95 0 1 0 0 5.9 2.95 2.95 0 0 0 0-5.9ZM6.63 6.63A1.95 1.95 0 1 1 9.39 9.389 1.95 1.95 0 0 1 6.632 6.63Z" clip-rule="evenodd"/>
</svg>
